-----BEGIN PGP PUBLIC KEY BLOCK-----

mQINBGp6kDsBEACoe8pl7MGJprSKLDbTcA5A8/GojiTsUT4JQt8VJUOq5+D461pg
4MtJDEjmGYD4AjS7xLSOW096tDaPzzOy3MKhOA1hJmeT9HE9DRwXJ8kSdqwXqIJ9
3sp0+kjMXISthIXmFak4TlBLhpRWX/7ReKjwm5BfCMAyZdJ318SiXA17m7hScykA
GhSAG0s9Tmzfnwc+B3WTbjt4H1gjPO0dGOQNGv9ki6bNIm02hZPZ0BE+q7bqYt6i
B4Nl9g4h4XEVu2PB9iF7CzogAx80eWkedNZTCR90Abzu/wRwBGhWdoCr0l1toW2K
ZhFU+Xe6JZhClpeMCGT1LYVNRG7oQVMGDj8qFqGh4TT10nrExsWXAjvKDjc+BU3t
Ilml7UhftvmHqGm+HeqqCmk5JIn8WjmnNz/9PY5aMQP9lCoCcCK7BrfoDGAvfL0v
doRbIz3KTMl7vymlrxpvn6krVFjEHjG7m3YQhYvm84BlFAY7o1jrIN6o2lOIpiNi
W02t5v8uACtl8iubcsGUF2HZcDAoiiU3yvQMkXVZiD6QYWeIZt8tDohVkTFxpqPT
Y12QrJQ1+3LJTzqyGXn+zCkqDuuids5y4w3Gkf0dvuQ+CpndDROPcvoNCliztqf4
P8bW4p2i+vOXxF2r3d2w+mBxi11aZn/TSvOhnAqRLlZrwEOQMmZ9523M1QARAQAB
tBtZdWtpIE5peCA8eXVraUBuaXh5dWtpLmNvbT6JAjAEEwEIABoECwkIBwIVCAIW
AQIZAQWCanqQOwKeAQKbAwAKCRCXqO1/RaG7LPDZD/4yGQ35WJnhegA3QKJ25FwQ
dDF48zaop44TRZB3Bn7UKv+Z4/N9FVWGHvvl5/U1NIHLa7Jb7EYrFmuTop4pzgDr
bhar6YiUT79gpVGtRZdXF/b6kGdCddUJbwf16CFB+Ii4EOPtJ147jBtIstfSiOb4
8spNJ3+3bv5UCyFQ7c7jDdq/wQ0jNzgavR1u99hpUd7BcU2Qr+AMBB8HyrGzdcKq
3vinOHFhlpiNP+/0mOoAZsrxav/FaViFeVKA9Z7rjD84/eU/s8ZNzNzc7QTKcJBh
RGj0Mk+x1hljzTN6H3AKW+g88suxhgXl1Z56xVOe3UFmLpHJGKZfn4VNEBmbUrUY
GjjRlle2wBM6SzdcPkJFYiq9+BygK+t1CcSJx1lXTR3BGJr1Ri6lLOadRRo7VyLA
inEGpximSydwuQrdvRwik1YLvrVJjIuNC05hRfZjRw1rJ5bkE1jTnVNCc8C+gijg
KVpKjyTNB/Ug1oOoM6oqPU+bnyj0Hv7TAXmhcpMKsphKsMSwTEQEPyO7Xrkh2//r
9KY1ytEkmZXVUD0H8Ds2FKtXaqxFJIOrFC9livscikUNdVS5GhDNA6vXt1VczbS1
E6kPwI/rwC1b0xmmHyFL0zf1cu+T9tHMvCDoK9A/UPiAh6Ug84QWmwyQQlWen+/i
SwFa9cvPVWwCrwpv1VuLBrQeWXVraSBOaXggPG5peHl1a2lAb3V0bG9vay5jb20+
iQIwBBMBCAAaBAsJCAcCFQgCFgECGQAFgmp6kbICngECmwMACgkQl6jtf0WhuyzE
ExAAkZeVJoNpaUyYcN+Ed0n43vQ3uX//C1T1pxgQcTbn0ynLWqFxkTYFZ0RgIgvs
J8+heDER3ChcrklXyJV3EJ4ZyninNeSSVRMILG+FK5Vhe8E28sCAzK7hIHNxmGYF
KRAnw8y0i5N6VKiZe39iFTF1wC+znKq79ZVRRBeks2wjwNoppskvSCWLgEm8s8Of
/bk5KR33y10ZKdzHPdBKi6iP0kzA+4HRnmLgCRWbYApjKjwUXjtOTNFDvg2F0Twu
vdFo3IuOEjTmLDBcraUJvHyB31Q5suzUz4Nu7rORfE56i0wy7bCZTlx+/2KHAAo8
LbHVlKLIQq+n0nEoWiHzivmd60ozDwCgD+20pi4phTLrNXwV0Eefuai31mncA3uB
fMyQSIxtR0t10rqKDNHttBlvWrPjHaGYwWiSk6feXCbO+uVon18L7Ka3fKMlZENF
3rAtqmlY5NEWqbuLd2LEVpLAOXOax9qTFKn8me1bZ2gSoDAvEOYD/dY1PuIPgqTA
sDcNmceE4etieXHI5XVtnGLbAlv+Ea5BGlao9vgnTgoiJd+FdbkEil6mZ1QVnXJN
OySRp3Li5Ntw0UIvfNeh3yMQjV2S0sT/crQiWe5SMrVHNLbOD7dJ3m8s0ldi7SAT
LJfidqpc+Ex7qlZErSIL/XeBfCOjl4lVfPHw5GHh2ZWeQLq0Hll1a2kgTml4IDx1
bWFydUB1bWFydS5zY2llbmNlPokCMAQTAQgAGgQLCQgHAhUIAhYBAhkABYJqepIC
Ap4BApsDAAoJEJeo7X9Fobss7LsP/RjjN5x25IZEz4cxTWK2UyCdhGWgcKCCohNM
infroEE3JSroCvm++22SNygSQXxHYVvtPvH4t6z4MGhqm8hZrJ7eh0eN1ngolR5O
KOxA0rtC4ElAEubVKEGOid33xlBSxFNs/N0sictWYHweYGDODQsPYz+NsPIeGl9p
rTjVTSdvpiPoBEsYY1q34ywlgpCKV5oCOGtpoJ9x/gThO2oWV/n1AV5Lg572PXVg
hr4aW0duwr/oTGEvtEEP8etIRGfYbK5Bnbj8E64Z0bndZNUKn7cUqUQ+TJ8/YWP5
VMiDLgTkIcvmTaxevFlx9zfwZmtA91ejSZRCx+Wha8DG1x7zR4HcEu9719OB+r76
YzHFR+Y+1zUQxmJR8KjjI4BxT17BpukxjQtJvnMFUHvrOWCghjXNBZzilEB07+MQ
B+K/CQiXptumnzuc1pVh0dWzUZkQOlIHAN4/JKYvQjYeiKkxnH8FOWVx2JzA7xI0
77RlyBHFuLVrotyGrI1CMj9Saf7rvDKeC7eQkyuaKdDsxX9IudMrSe+/iA0esodj
96/9PhvZKHLbt+j1Cv+Er/qzVtnmKjEJv8ktwQCCFkSdns9AWsYorDdjeayVes2t
tLpIw7Lwv6lyMcmxOoEoS8FEAUWZvVw8Az2xBr7Pid482l27EdhjLlrzvylvg5e4
9NzpB7a7tB9ZdWtpIE5peCA8dW1hcnVheWFAb3V0bG9vay5jb20+iQIwBBMBCAAa
BAsJCAcCFQgCFgECGQAFgmp6kgICngECmwMACgkQl6jtf0Whuyyd1w//TwUnZbZH
k8B/UVA7U4SPdFHWAJlbp/szBrTvwfZ7LYDeVJXsXgEuSGJohttI5kccKL0sqSGC
OEFxF1hezzfsWrLpiDnWSRb8JQFkc/XGXPglRNo5HuDJTFqZy003IXPmeQqqpF+n
gOnOPJt7okiqFBgEOeWTsgrDkahtLczRMmUiF5e8cew2pAYKhIar37g7PVJhJCJB
iWZllWakc9IsuIETUpFocgRzTtiMlS5K2MXvHx7SEe9BZboQE2Au7TwYworttfwE
i9zbpajx3PQUutuD+YaBcuzkwGMOUMn08Vch1jLN+oLmR5XUW/KamvRYt1eccty5
J9d5YcZJx/+aw605MpdkSmSH0a0i2duUwE6iR5/QF9L986R+JFexoAM8AxEGwFvQ
0oEv2NfVBusS0fHoOyPmwdNA8RBL22epBr2Np3rRpNYHvd21yUwDzT+izOypJkc7
38Jel0K5zeSAr6JQBBIw5bBAfsiR6EM7tyV1QeOLBioLEHBuxWxSivt2ZQbEtFu2
b+awQmPxilI2dbIScmmsscePil2agQl0xP4HOln5p7t3p5iiWYyc89gkhamEBf4L
M9jzYwo+P8Uaxq7S8CkrSroaa8WPoTOCW4FT9dCYHvhoBLi/cQvTvXXT5DI7Gmnt
p+FhewdFYjR5rE0uFSGZ34vbYSvyWCi7zCS0Ill1a2kgTml4IDx1bWFydWNlbGlh
YXlhQGdtYWlsLmNvbT6JAjAEEwEIABoECwkIBwIVCAIWAQIZAAWCanqSAgKeAQKb
AwAKCRCXqO1/RaG7LDIxD/4uz/m7f5mhDjcLtF3GHyItgr8aoUzwQNwWlwfbVo/4
yyHnGpKFDe6PdGmaMRxIihu17C5QEj7kRA1+KBREqByJCjjkXTGfBLIsbpxtNNhW
wZUKSs2l3Pn2hrgxgiB0THVmfqhqjpJrJjXvCg+Jf+qC6yPuRJ4hNgLuCiuef3oM
NjBcMr+uNX+0jh3ckz0ec0yJQ0zuV6zMcLp2KR0YkYnNlIrWRAz1vZZBgeln9IXM
oMGa8vK0OQqyHU/MaYQHHwKFMBqxXnLch0C3ICVTSfaE6nXboR5Cc+V2fXUy1ETZ
HZyXDTZjvTRuwA5wDhDORGeh8LhZee5FLqVBsR3Fy88PgskqvgfK9Cx1r1JYIg/v
l7qL9MvyahYPnVZx93BSSnQddnSJ9F0Z9gDROEU2YjanlIkFXbObt+4NbEfKFPzO
Ac9mTHTROcxrOrUd8YaTT22cIo9irU4MMdd6chhJUMo5UOkz6lRwJ8rkZOBXDREg
TfrcCeZWnr8El/ntj9U4T6d44J0hUi3hHXM8nkLVrHyoKeW1ITdNozeoyYgpW4gT
H/WV0dM5oafmynr8mWH3HFCVD6WjI9uRNjDyvBSl8p1I31pk52G0cjqfT1QR4nb6
zLMiHBdRL9lT/7ff16EOBO3gyXLpqQ3wxnZLrpgKxRi5Kbvad9t4t6pvYinOteUq
CrkCDQRqepA7ARAAjp98UePyddS5351HhXtomfBLhMk05zNhCS2PuZpPyRP9YHxD
DS5QHJDZNj0g3BIf5GxSSlkMKmXzDWRYn690l+L5vbhwCYw8LYsiQNOqRqp4n3iw
ajXEryCjkZpyZqxSnZIpSQ4Tz5ArzGR65pnoGezO/YleeLJPK+dVWKXNotLivRHN
Jg/+k5ezq0C2QQmsrHG1+kdwNYvRdxhr2LvGR7iLV7PMNHOOe1xGRJBFhw82Nncv
Km/LRsSiOcG6POQLZ82s3CwHfHOee8FpA0WzZtRSgKYX6J8XcB9RwQTmXtaS2a3M
ja9wCByJJZqsgyOftjizgroxcXvRFK8gpFx12PMWJ34TlcJp5CceJDVDf5I7J2t0
6/AS19k6Qe943mNmzrPgB3r8feTGNh2yKmrv3u2kR2EAvwPph91tadV20Lwdqh54
rAeovTQqYeFpqj/fTNU+eGK5Gtav22KmCPxqooIcOtc2fqkqwqzIotb8brx7LUCZ
D2ml6qdU3P1+7g7SDYSdjrVvG+6OVktRjBHleU+OFORDL6Zz2qfkMazxFplmaEN5
c5FgbFl72ABuiAuj4jtC1DDLI+ULmYmSjX0FODeeBrpZuDO2vOX8J3bWH6LoS+4t
NYduqv60NjLjvCUuItLjDiJ1IRoxvnoaNy3mFtanwWGiXH6X+uzrdaxGHCEAEQEA
AYkCHwQYAQgACQWCanqQOwKbDAAKCRCXqO1/RaG7LAMxEACVSKLVIVKT79li+7wm
G+5BKRA9yg1uQBUaOncgRKO/l+R9kfd86W0vG0MexN6TyoGSPAvzXF7DpSM6LwKx
SLZosL54ehQxKSnDs8s5oOmk9wD/FCYTJV2pZ7HPrc06oUBVAzn/TrVzx/AMOId/
aV8hUEzGYUwjmjukHBQROBwv7S53OnvUM0nqc90Cl4yMaVWQWgdx/t/W3ZQipzgG
4z8AbmfSFtuYs11V8yXH0sUGQ4fZPfe/P5F3IAZ5qyDhS1kePP4nO/pGsKZENT4T
HabMxotEEgTA9fTP5MC4NFP14w+RByz4okgUSoiA5RjNuAIXmvEaoCrfsAsoAK60
BRDniwpIPaIY5pBwT3LEre2dNKRwUB+S8bZR2F73FfA1MSuFPzpVxS3FTWC58Nz/
80fkt/fouNWs3uUlfqB4vRN9v29Dg77Ubvq6Ls3UycLcVLcLBk4LloplNqeIw7iv
qfEYHwQdBBDmQ2UgTDzxeRLQslE9j8x3HGjzmAoKTA1Tr9uuteezhcRyls55xX10
wDd8U+YDzVvXY6oEEGoJ+139u6aREzOdI8CP3HMJcnLlFhCCdlP/5IvgAo8ZVZ6y
Da3I+H5Wanl422DFYPOquYZkCpcVZRBpGrG7tTpwtwYnm/6ZuHkhoppDkf+lgHE/
dpTwz2RHgqlZVLq5Q4wGkQSxKbkCDQRqepA7ARAAum2i3knfqtXF5XB0cssk1kHM
bEgmo6a06PaT9pm1eOdwUCyJUSsbdPT0CEtuQAzKXoQdkBlA0MrH5fRWJyhWlHTB
7O78yMk5Sphv0ILgxobnQswcnvGMTGLpX13vvu83lmvvr8wC4+sdSpjxCKrK+UnC
7CBOL/sJuc/YDNio4M/5sd8AOC/48Py7tLQ2zNQWb8M2oCTwprWbBp0/67AyaNeZ
bsSuNleW3TswJgC/TgkqNKHlWOsGpIoPDLUS92MHT720dq6K/xqEmJ+Gbns2QKvW
1Oh1KSdItXPmtkA9mVEp+7iCahDHX/N9E4vJWJRU5QFnyGUztHA7ldaj+ejn9rbz
yKxFCeOYLzNTAApaj0CxGY+IQKupgz9u11FIdK29SwhwebE8YuAjM+H6Q3IMitnf
V3j7naZTbGRYtNiTpbhARsb7AYa1mov5RXUH+Wgoq0VfYHc5vyMMUIRjKtK872g9
Co/yWo6rllLrdix5WhyDuhKuYzIeFUKNEkjdsJtNLqV/Gvftomr8Xihs2VKwweKO
BkCm5PEuD/0BxAXBrp7/oYTAHtFjji0LMwNlVrISeNGvWhPYBpYtZlrMw9sPiy2S
EkzG+2hKltnPGkKzpqSTiFnQYshUwQgNbW0rx5NVu9q5ehhrFy3EbIT7F46Vx0Ve
W0b428GrOxJoD9rn8cUAEQEAAYkCHwQYAQgACQWCanqQOwKbIAAKCRCXqO1/RaG7
LP9BD/9X522TwjisWGx0ZUP61BR205g0WgMZHhMzLB+MOO55lWKCZdv0JX/zDqVe
bBOyw8EA3n33YOflBfZ8Wnud3Ct0RiNjMx4j/w2g+fxTrG1qoUnWh97LVFXYN2Yc
luED++A9aJ10vA1iD21/ShsLzJkLqdzw/HgG3QSeGvvKNTE5LZjmtyZCB2tuLE3H
+K+PcDeKWIMUVLnvM8QU83lgVgHRoo/JWL+GBgg85eKaGIPZnZ+jsgVu420KoyM9
dFG3czvSN58mcQFWXiWjnvqSrvhjDanP7eBIcNP5itswd1gqgv2EENxqWjy51lyY
XuKldXzQM1o3nYj/AP3mOOB68LfQyz7TajzWx+dlf6pcp1bM4VZ3QLT9gptX/28B
pH19JOtxQy5dsqvpHdHlhQ8JWnsxIz45x4JAdAXxVGjqOUk5AxDKhLC+vzGLh/5+
QRcjLIa6hz5YlB+nvmFueEnZb8PRZjZGW7ETq/CPrLIA+WJtRPws3QTmGiWqRXvb
W+SRmTivbUtoY7t7FF7rrwMa0KaRc9qf9iOCIw6Flhfy0nPWS9iMGxCoq0tOb8F9
SuQ7ZHsye+B4xo6ccbvLsgBw/iaMjs2Xd//Nu2AAO6muW1pnxgK0JmDzKYzVPRqz
nMlGNh3N+PbChdfNFNJd8H7WzOmiR4OIqToA6Et1ADht7yf+Ig==
=qXpR
-----END PGP PUBLIC KEY BLOCK-----
